X:1
T:Title
%%score { ( 1 4 ) | ( 2 3 ) }
L:1/8
M:6/8
K:Ab
V:1 treble nm="Grand Piano"
V:4 treble 
V:2 bass 
V:3 bass 
V:1
 z3 z2[Q:1/4=87] [CE] | [CE][DF][CE] [CA]2 [CE] | [EG]2 F F2 F | EFE G2 F | %4
[M:5/8] [DF]2 [CE] [A,C]2 |[M:1/8] [CE] |[M:3/4] [CA]2 [CA][CA] [DB][Ec] | [Fd]2 [DF] [FB]2 [FA] | %8
 G2 A c2 B |[M:5/8] [CA]-[CA]- [CA]3 |[M:1/8] c |[M:3/4] e2 cc BA | B6 | d2 BB AB | %14
[M:5/8] c-c- c3 |[M:1/8] [A,CE] |[M:3/4] [CA]2 [CA][CA] [DB][Ec] | [Fd]2 [DF] [FB]2 [FA] | %18
 G2 A c2 B |[M:5/8] [CA]-[CA]- [CA]3 |] %20
V:2
 z3 z2 [A,,A,] | [A,,A,]2 [A,,A,] [A,,E,]2 [A,,A,] | [D,A,]2 [D,A,D] [D,A,D]2 [D,A,D] | %3
 [E,G,D]2 [E,G,D] [E,B,D]2 [E,G,D] |[M:5/8] [A,,A,]2 [A,,A,] [A,,E,]2 |[M:1/8] [A,,A,] | %6
[M:3/4] [A,,E,]2 [A,,E,] [A,,E,]2 [A,,A,] | [D,A,]2 [D,A,] [D,D]2 [=D,B,] | %8
 [E,B,E]2 [E,CE] [E,A,E]2 [E,G,D] |[M:5/8] [A,,A,]-[A,,A,]- [A,,A,]3 |[M:1/8] [A,E] | %11
[M:3/4] z2 z .E3 | [E,E]2 [E,E] [E,E]2 [E,G,E] | z2 z .[E,E]3 |[M:5/8] [A,E]2 A, A,2 |[M:1/8] A,, | %16
[M:3/4] [A,,E,]2 [A,,E,] [A,,E,]2 [A,,A,] | [D,A,]2 [D,A,] [D,D]2 [=D,B,] | %18
 [E,B,E]2 [E,CE] [E,A,E]2 [E,G,D] |[M:5/8] [A,,A,]-[A,,A,]- [A,,A,]3 |] %20
V:3
 x6 | x6 | x6 | x6 |[M:5/8] x5 |[M:1/8] x |[M:3/4] x6 | x6 | x6 |[M:5/8] x5 |[M:1/8] x | %11
[M:3/4] [A,CE]2 [A,E]A, [A,B,][A,CE] | x6 | [E,B,E]2 [E,G,E]G, F,[E,G,E] |[M:5/8] x5 |[M:1/8] x | %16
[M:3/4] x6 | x6 | x6 |[M:5/8] x5 |] %20
V:4
 x6 | x6 | x6 | x6 |[M:5/8] x5 |[M:1/8] x |[M:3/4] x6 | x6 | x6 |[M:5/8] x5 |[M:1/8] x | %11
[M:3/4] x6 | G2 G G2 B | x6 |[M:5/8] z2 E E2 |[M:1/8] x |[M:3/4] x6 | x6 | x6 |[M:5/8] x5 |] %20

